!!!SOCIAL_FUNCTION:	bird dance songs
!!!PDT:	1956
!!!OTL: No_133_Whooping_Crane_Dance_Song_(a).krn
!!!LANG: Non-Tone
!!!LING_GROUP: Muskogean
!!!REG: Florida
**kern
*staff1
=1-
=
*clefF4
*k[b-e-a-]
*M2/4
16B-\LK
8.B-\J
16c\LL
16c\J
(8c\J
=2
4B-\)
16B-\LK
8.G\J
=3
16B-\LK
8.B-\J
16B-\LL
16A-\J
8A-\J
=4
4A-\
16G\LK
8.E-\J
=5
16E-\LL
16E-\J
8C\J
8BB-/
8r
=6
16E-\LK
8.E-\J
16A-\LL
16A-\J
8A-\J
=7
4A-\
16G\LK
8.E-\J
=8
16E-\LL
16E-\
(16E-\
16C\JJ)
4BB-/
==:|!
*-
